X: 1
T:The Grunstan Afloat
M:6/8
L:1/8
K:C
c/2B/2|cGFEDE|CEGc2C/2B/2|cGFEDE|CEGc2c|cecdcB|AdcB2G|GABcGF|EDCG3|DEDF3
|ECEG3|AcBcGF|EDCG3|DEDF3|ECEG3|AcBcGE|AFGC2||
% Output from ABC2Win  Version 2.1 i on 3/6/2000
